X: 29921
T: O'Sullivan's Folly
R: jig
M: 6/8
K: Dmajor
|:FEF AFD|GFG BGE|FEF AFD|EFD EFG|
FEF AFD|GFG B2d|A2f ede|fdd d3:|
|:FAA BAA|dAd fed|ABd fed|efe e2A|
FAA BAA|dAd fed|A2f ede|fdd d3:|
|:ABd fed|efd cBA|ABd fed|efe e2A|
ABd fed|efd cBA|A2f ede|fdd d3:|

